public/common/tablet-logo-black.svg

<svg width="166" height="40" viewBox="0 0 166 40" fill="none" xmlns="http://www.w3.org/2000/svg">
<path d="M62.5659 32.8476H6.78066C3.03594 32.8476 0 29.8057 0 26.0537V6.79389C0 3.04187 3.03594 0 6.78066 0H55.7852C59.5299 0 62.5659 3.04187 62.5659 6.79389V32.8476Z" fill="#34D186"/>
<path d="M7.80573 7.42308H12.3239L16.0224 17.9112L20.0026 7.42308H22.7661L26.6748 17.7909L30.3779 7.42308H34.9261L28.2124 25.857H25.2872L21.3647 15.3528L17.3245 25.857H14.434L7.80573 7.42308Z" fill="white"/>
<path d="M55.9722 17.9783H41.1411C41.3558 19.2898 41.9284 20.3308 42.8565 21.1034C43.7869 21.8783 44.9735 22.2646 46.4165 22.2646C48.1411 22.2646 49.6233 21.6609 50.863 20.4511L54.7532 22.2808C53.7836 23.6595 52.6223 24.6773 51.2694 25.3389C49.9165 26.0005 48.3096 26.3312 46.4511 26.3312C43.5652 26.3312 41.215 25.4198 39.4003 23.5947C37.5857 21.7696 36.6784 19.4865 36.6784 16.7407C36.6784 13.9278 37.5834 11.5938 39.3911 9.73398C41.2011 7.87647 43.4683 6.94656 46.1972 6.94656C49.0946 6.94656 51.4495 7.87647 53.2664 9.73398C55.0811 11.5915 55.9884 14.0458 55.9884 17.0946L55.9722 17.9783ZM51.3548 14.3373C51.0501 13.3102 50.4498 12.4728 49.5517 11.8297C48.6536 11.1867 47.6124 10.8651 46.4257 10.8651C45.1375 10.8651 44.0085 11.226 43.0388 11.95C42.4294 12.4011 41.8637 13.1992 41.3443 14.3396H51.3548V14.3373Z" fill="white"/>
<path d="M74.5319 14.3488H79.1493V32.7828H74.5319V14.3488Z" fill="#232524"/>
<path d="M66.2298 7.2334H70.8472V32.7828H66.2298V7.2334Z" fill="#232524"/>
<path d="M76.8406 6.75919C77.6486 6.75919 78.3435 7.05297 78.923 7.64053C79.5025 8.22808 79.7911 8.94055 79.7911 9.77562C79.7911 10.5991 79.5048 11.3023 78.9323 11.8853C78.3597 12.4682 77.674 12.7573 76.8752 12.7573C76.0556 12.7573 75.3538 12.4613 74.7766 11.8668C74.1971 11.2746 73.9085 10.5529 73.9085 9.70622C73.9085 8.89197 74.1948 8.19801 74.7674 7.62202C75.3399 7.04603 76.0302 6.75919 76.8406 6.75919Z" fill="#34D186"/>
<path d="M87.9593 14.3488V16.2387C89.0051 15.3551 89.954 14.7398 90.8036 14.3928C91.6532 14.0481 92.5236 13.8746 93.4125 13.8746C95.2363 13.8746 96.7832 14.5131 98.0553 15.79C99.1242 16.8749 99.6598 18.4779 99.6598 20.6014V32.7828H95.0932V24.7097C95.0932 22.5098 94.9939 21.0502 94.7977 20.3262C94.6014 19.6021 94.2574 19.0539 93.768 18.6768C93.2785 18.2998 92.6737 18.1101 91.9557 18.1101C91.0229 18.1101 90.2218 18.4224 89.5523 19.0493C88.8828 19.6762 88.4187 20.5413 88.1601 21.647C88.0262 22.223 87.957 23.4698 87.957 25.3875V32.7828H83.3396V14.3488H87.9593Z" fill="#232524"/>
<path d="M122.317 14.3488V30.1388C122.317 33.257 121.692 35.5494 120.44 37.0183C118.76 39.0053 116.229 40 112.847 40C111.044 40 109.527 39.7733 108.299 39.3222C107.071 38.8712 106.034 38.2073 105.187 37.3306C104.342 36.4538 103.716 35.3898 103.31 34.136H108.401C108.851 34.6565 109.433 35.0474 110.141 35.3134C110.85 35.5795 111.69 35.7113 112.66 35.7113C113.9 35.7113 114.897 35.5193 115.652 35.1353C116.407 34.7513 116.94 34.254 117.25 33.6433C117.559 33.0326 117.714 31.9824 117.714 30.4927C116.901 31.307 116.052 31.8899 115.16 32.2461C114.269 32.6024 113.26 32.7805 112.134 32.7805C109.666 32.7805 107.579 31.8876 105.877 30.1041C104.176 28.3206 103.324 26.0606 103.324 23.3264C103.324 20.4002 104.226 18.0523 106.03 16.278C107.664 14.675 109.615 13.8723 111.88 13.8723C112.939 13.8723 113.939 14.0666 114.881 14.4576C115.823 14.8462 116.767 15.4892 117.714 16.3798V14.3488H122.317ZM112.933 18.1957C111.478 18.1957 110.278 18.6838 109.331 19.6623C108.384 20.6384 107.911 21.8668 107.911 23.3472C107.911 24.8832 108.396 26.1416 109.366 27.1247C110.335 28.1078 111.552 28.5982 113.018 28.5982C114.449 28.5982 115.631 28.117 116.56 27.1571C117.49 26.1971 117.954 24.9387 117.954 23.3796C117.954 21.8436 117.485 20.5945 116.55 19.6345C115.615 18.6745 114.41 18.1957 112.933 18.1957Z" fill="#232524"/>
<path d="M126.969 14.3488H131.635V23.2269C131.635 24.9549 131.753 26.1554 131.991 26.8263C132.229 27.4994 132.61 28.0199 133.136 28.3923C133.662 28.7647 134.309 28.9521 135.078 28.9521C135.846 28.9521 136.497 28.7694 137.035 28.4016C137.573 28.0338 137.97 27.4948 138.231 26.7846C138.423 26.2549 138.52 25.1191 138.52 23.3796V14.3488H143.137V22.1582C143.137 25.3782 142.883 27.5804 142.375 28.7647C141.754 30.2105 140.842 31.3208 139.635 32.0935C138.428 32.8661 136.895 33.2547 135.036 33.2547C133.018 33.2547 131.386 32.8036 130.142 31.8991C128.895 30.9947 128.02 29.7363 127.512 28.1217C127.152 27.0044 126.972 24.9711 126.972 22.0217V14.3488H126.969Z" fill="#232524"/>
<path d="M165.963 14.3488V32.7828H161.346V30.8351C160.446 31.6933 159.541 32.3109 158.636 32.6903C157.728 33.0673 156.747 33.257 155.687 33.257C153.312 33.257 151.257 32.334 149.523 30.4881C147.789 28.6421 146.921 26.3451 146.921 23.6017C146.921 20.7564 147.759 18.4224 149.438 16.6042C151.116 14.786 153.152 13.8769 155.551 13.8769C156.655 13.8769 157.691 14.0851 158.659 14.5038C159.626 14.9225 160.522 15.5494 161.344 16.3845V14.3488H165.963ZM156.493 18.1448C155.066 18.1448 153.882 18.6514 152.938 19.6623C151.993 20.6731 151.523 21.9685 151.523 23.5508C151.523 25.1423 152.003 26.4539 152.963 27.4809C153.924 28.508 155.106 29.0238 156.512 29.0238C157.961 29.0238 159.164 28.5195 160.118 27.5087C161.071 26.4978 161.552 25.1723 161.552 23.5346C161.552 21.9315 161.074 20.6315 160.118 19.6368C159.16 18.6398 157.952 18.1448 156.493 18.1448Z" fill="#232524"/>
</svg>

<svg width="166" height="40" fill="none" xmlns="http://www.w3.org/2000/svg"><path d="M62.566 32.848H6.78C3.036 32.848 0 29.806 0 26.054V6.794C0 3.042 3.036 0 6.78 0h49.005c3.745 0 6.78 3.042 6.78 6.794v26.054z" fill="#34D186"/><path d="M7.806 7.423h4.518l3.698 10.488 3.98-10.488h2.764l3.909 10.368 3.703-10.368h4.548l-6.714 18.434h-2.925l-3.922-10.504-4.04 10.504h-2.891L7.806 7.423zM55.972 17.978h-14.83c.214 1.312.786 2.353 1.714 3.125.93.775 2.117 1.162 3.56 1.162 1.725 0 3.207-.604 4.447-1.814l3.89 1.83c-.97 1.379-2.13 2.396-3.484 3.058-1.352.662-2.96.992-4.818.992-2.886 0-5.236-.911-7.05-2.736-1.815-1.825-2.723-4.108-2.723-6.854 0-2.813.905-5.147 2.713-7.007 1.81-1.858 4.077-2.787 6.806-2.787 2.898 0 5.252.93 7.07 2.787 1.814 1.857 2.721 4.312 2.721 7.36l-.016.884zm-4.617-3.64c-.305-1.028-.905-1.865-1.803-2.508-.898-.643-1.94-.965-3.126-.965-1.288 0-2.418.361-3.387 1.085-.61.451-1.175 1.25-1.695 2.39h10.01v-.003z" fill="#fff"/><path d="M74.532 14.349h4.617v18.434h-4.617V14.349zM66.23 7.233h4.617v25.55H66.23V7.233z" fill="#232524"/><path d="M76.84 6.76c.809 0 1.504.293 2.083.88.58.588.868 1.3.868 2.136 0 .823-.286 1.526-.859 2.11-.572.582-1.258.871-2.057.871-.82 0-1.521-.296-2.098-.89-.58-.592-.868-1.314-.868-2.16 0-.815.286-1.509.858-2.085a2.814 2.814 0 0 1 2.074-.863z" fill="#34D186"/><path d="M87.96 14.349v1.89c1.045-.884 1.994-1.5 2.844-1.846a6.885 6.885 0 0 1 2.608-.518c1.824 0 3.371.638 4.643 1.915 1.07 1.085 1.605 2.688 1.605 4.811v12.182h-4.567V24.71c0-2.2-.1-3.66-.295-4.384-.197-.724-.54-1.272-1.03-1.65-.49-.376-1.094-.566-1.812-.566-.933 0-1.734.312-2.404.94-.67.626-1.133 1.491-1.392 2.597-.134.576-.203 1.823-.203 3.74v7.396H83.34V14.349h4.62zM122.317 14.349v15.79c0 3.118-.625 5.41-1.877 6.88-1.68 1.986-4.211 2.981-7.593 2.981-1.803 0-3.32-.227-4.548-.678-1.228-.45-2.265-1.115-3.112-1.991-.845-.877-1.471-1.941-1.877-3.195h5.091c.45.52 1.032.911 1.74 1.177.709.267 1.549.398 2.519.398 1.24 0 2.237-.192 2.992-.576.755-.384 1.288-.881 1.598-1.492.309-.61.464-1.66.464-3.15-.813.814-1.662 1.397-2.554 1.753-.891.356-1.9.535-3.026.535-2.468 0-4.555-.893-6.257-2.677-1.701-1.783-2.553-4.043-2.553-6.778 0-2.926.902-5.274 2.706-7.048 1.634-1.603 3.585-2.406 5.85-2.406 1.059 0 2.059.195 3.001.586.942.388 1.886 1.031 2.833 1.922v-2.031h4.603zm-9.384 3.847c-1.455 0-2.655.488-3.602 1.466-.947.976-1.42 2.205-1.42 3.685 0 1.536.485 2.795 1.455 3.778.969.983 2.186 1.473 3.652 1.473 1.431 0 2.613-.481 3.542-1.44.93-.96 1.394-2.22 1.394-3.778 0-1.536-.469-2.785-1.404-3.745-.935-.96-2.14-1.44-3.617-1.44zM126.969 14.349h4.666v8.878c0 1.728.118 2.928.356 3.6.238.672.619 1.193 1.145 1.565.526.373 1.173.56 1.942.56.768 0 1.419-.183 1.957-.55.538-.368.935-.907 1.196-1.617.192-.53.289-1.666.289-3.405v-9.031h4.617v7.81c0 3.22-.254 5.421-.762 6.606-.621 1.445-1.533 2.556-2.74 3.328-1.207.773-2.74 1.162-4.599 1.162-2.018 0-3.65-.451-4.894-1.356-1.247-.904-2.122-2.163-2.63-3.777-.36-1.118-.54-3.15-.54-6.1v-7.673h-.003zM165.963 14.349v18.434h-4.617v-1.948c-.9.858-1.805 1.476-2.71 1.855a7.607 7.607 0 0 1-2.949.567c-2.375 0-4.43-.923-6.164-2.769s-2.602-4.143-2.602-6.886c0-2.846.838-5.18 2.517-6.998 1.678-1.818 3.714-2.727 6.113-2.727 1.104 0 2.14.208 3.108.627.967.418 1.863 1.045 2.685 1.88V14.35h4.619zm-9.47 3.796c-1.427 0-2.611.506-3.555 1.517-.945 1.011-1.415 2.306-1.415 3.889 0 1.591.48 2.903 1.44 3.93.961 1.027 2.143 1.543 3.549 1.543 1.449 0 2.652-.505 3.606-1.515.953-1.011 1.434-2.337 1.434-3.974 0-1.604-.478-2.904-1.434-3.898-.958-.997-2.166-1.492-3.625-1.492z" fill="#232524"/></svg>
